svgs/sharp-solid/chess-king.svg

<svg xmlns="http://www.w3.org/2000/svg" viewBox="0 0 448 512"><!--! Font Awesome Pro 6.6.0 by @fontawesome - https://fontawesome.com License - https://fontawesome.com/license (Commercial License) Copyright 2024 Fonticons, Inc. --><path d="M256 0l0 32 0 16 16 0 32 0 0 64-32 0-16 0 0 48 192 0 0 48L368 400 80 400 0 208l0-48 192 0 0-48-16 0-32 0 0-64 32 0 16 0 0-16 0-32 64 0zM32 512l0-32 48-48 288 0 48 48 0 32L32 512z"/></svg>

<svg xmlns="http://www.w3.org/2000/svg" viewBox="0 0 448 512"><!--! Font Awesome Pro 6.5.2 by @fontawesome - https://fontawesome.com License - https://fontawesome.com/license (Commercial License) Copyright 2024 Fonticons, Inc. --><path d="M256 0V32 48h16 32v64H272 256v48H448v48L368 400H80L0 208V160H192V112H176 144V48h32 16V32 0h64zM32 512V480l48-48H368l48 48v32H32z"/></svg>
